dist/img/svg/ic_star.svg

<svg width="26" height="25" viewBox="0 0 26 25" fill="none" xmlns="http://www.w3.org/2000/svg">
<path d="M19.8291 24.243C20.103 24.243 20.375 24.1576 20.6071 23.9897C21.0395 23.6763 21.2415 23.1377 21.1238 22.6179L19.5155 15.5333L24.9699 10.7499C25.3708 10.3999 25.524 9.8456 25.3594 9.33842C25.1948 8.8322 24.7469 8.4738 24.2167 8.42478L16.9998 7.76959L14.1466 1.09236C13.9362 0.601777 13.457 0.284958 12.9247 0.284958C12.3923 0.284958 11.9132 0.601777 11.7028 1.09121L8.84954 7.76959L1.63385 8.42478C1.10245 8.47265 0.654594 8.8322 0.489985 9.33842C0.325377 9.84464 0.477587 10.3999 0.878523 10.7499L6.33292 15.5323L4.7246 22.6168C4.60672 23.1377 4.80891 23.6763 5.24112 23.9888C5.67238 24.3012 6.24747 24.3252 6.70162 24.0523L12.9247 20.3334L19.1478 24.0544C19.3582 24.1793 19.5926 24.243 19.8291 24.243ZM12.9247 18.7314C12.6882 18.7314 12.4539 18.7949 12.2434 18.9199L6.3703 22.4325L7.88821 15.7458C7.99655 15.2699 7.83499 14.773 7.46725 14.451L2.31708 9.93429L9.13088 9.31553C9.62146 9.27071 10.0434 8.96228 10.2351 8.51023L12.9247 2.20895L15.6176 8.51118C15.8072 8.96018 16.2291 9.26861 16.7185 9.31343L23.5333 9.93219L18.3833 14.4489C18.0144 14.7718 17.853 15.2678 17.9623 15.7448L19.4791 22.4314L13.606 18.9199C13.3956 18.7949 13.1612 18.7314 12.9247 18.7314ZM17.055 7.89872C17.055 7.89872 17.055 7.89986 17.0561 7.90082L17.055 7.89872ZM8.79651 7.89567L8.79537 7.89776C8.79537 7.89662 8.79537 7.89662 8.79651 7.89567Z" fill="black"/>
</svg>

<svg width="26" height="25" viewBox="0 0 26 25" fill="none" xmlns="http://www.w3.org/2000/svg"><path d="M19.83 24.243a1.33 1.33 0 001.295-1.625l-1.61-7.085 5.455-4.783a1.328 1.328 0 00-.753-2.325L17 7.77l-2.853-6.678a1.329 1.329 0 00-2.444 0L8.85 7.77l-7.216.655a1.328 1.328 0 00-.755 2.325l5.454 4.782-1.608 7.085a1.328 1.328 0 001.977 1.435l6.223-3.719 6.223 3.721c.21.125.445.189.681.189zm-6.905-5.512c-.237 0-.471.064-.682.189L6.37 22.432l1.518-6.686a1.329 1.329 0 00-.42-1.295l-5.15-4.517 6.813-.618a1.33 1.33 0 001.104-.806l2.69-6.301 2.693 6.302c.19.45.611.758 1.1.802l6.815.62-5.15 4.516c-.369.323-.53.819-.42 1.296l1.516 6.686-5.873-3.511a1.33 1.33 0 00-.681-.189zM17.055 7.9l.001.002-.001-.002zm-8.258-.003l-.002.002.002-.002z" fill="#000"/></svg>
